svgs/thin/baht-sign.svg

<svg xmlns="http://www.w3.org/2000/svg" viewBox="0 0 320 512"><!--! Font Awesome Pro 6.6.0 by @fontawesome - https://fontawesome.com License - https://fontawesome.com/license (Commercial License) Copyright 2024 Fonticons, Inc. --><path d="M136 0c-4.4 0-8 3.6-8 8l0 56L49.4 64C30.9 64 16 78.9 16 97.4L16 248l0 16 0 146.4C16 431.2 32.8 448 53.6 448l74.4 0 0 56c0 4.4 3.6 8 8 8s8-3.6 8-8l0-56 60 0c55.2 0 100-44.8 100-100c0-48.6-34.7-89.1-80.7-98.1C252.5 232.4 272 200.5 272 164c0-55.2-44.8-100-100-100l-28 0 0-56c0-4.4-3.6-8-8-8zm-8 80l0 168-96 0L32 97.4C32 87.8 39.8 80 49.4 80L128 80zm16 168l0-168 28 0c46.4 0 84 37.6 84 84s-37.6 84-84 84l-28 0zm-16 16l0 168-74.4 0C41.7 432 32 422.3 32 410.4L32 264l96 0zm16 168l0-168 28 0 32 0c46.4 0 84 37.6 84 84s-37.6 84-84 84l-60 0z"/></svg>

<svg xmlns="http://www.w3.org/2000/svg" viewBox="0 0 320 512"><!--! Font Awesome Pro 6.5.2 by @fontawesome - https://fontawesome.com License - https://fontawesome.com/license (Commercial License) Copyright 2024 Fonticons, Inc. --><path d="M136 0c-4.4 0-8 3.6-8 8V64H49.4C30.9 64 16 78.9 16 97.4V248v16V410.4C16 431.2 32.8 448 53.6 448H128v56c0 4.4 3.6 8 8 8s8-3.6 8-8V448h60c55.2 0 100-44.8 100-100c0-48.6-34.7-89.1-80.7-98.1C252.5 232.4 272 200.5 272 164c0-55.2-44.8-100-100-100H144V8c0-4.4-3.6-8-8-8zm-8 80V248H32V97.4C32 87.8 39.8 80 49.4 80H128zm16 168V80h28c46.4 0 84 37.6 84 84s-37.6 84-84 84H144zm-16 16V432H53.6C41.7 432 32 422.3 32 410.4V264h96zm16 168V264h28 32c46.4 0 84 37.6 84 84s-37.6 84-84 84H144z"/></svg>
